svg/u1f981.svg

<svg viewBox="0 0 128 128" xmlns="http://www.w3.org/2000/svg">
  <path d="M62.59,13.59c0,0,1.83-4.22,5.98-6.9c2.02-1.3,5.55-3.31,6.19-2.18c0.28,0.49-0.63,1.76-1.55,3.73 c-0.37,0.81-1.2,3.45-1.2,3.45s3.66-4.79,10.07-6.05c5.04-1,10.49-0.35,11.12,0.77c0.68,1.21-2.89,3.87-4.01,6.19 s-1.97,5.28-1.97,5.28s6.75-3.19,8.45-3.87c2.11-0.84,6.69-2.6,7.32-1.83s-2.02,5.24-2.6,6.05c-0.7,0.99-1.76,2.82-1.76,2.82 s3.24-1.48,4.5-2.25c1.27-0.77,4.08-2.96,4.72-2.53c0.63,0.42,0.63,4.7,0.21,6.55c-0.56,2.46-3.17,5.14-3.17,5.14 s3.73,0.84,5.77,3.45s3.23,4.64,4.08,7.25c1.27,3.87,1.83,9.15,1.55,10.14c-0.28,0.99-1.83-0.35-4.72-0.56 c-1.71-0.13-2.11-0.14-2.11-0.14s1.63,1.94,2.39,3.73c0.99,2.32,2.07,5.98,2.67,7.53c0.63,1.62,1.13,2.89,2.04,4.72 c0.27,0.54-1.9,1.06-4.08-0.99c-0.73-0.68-1.62-1.34-1.62-1.34s1.29,7.67,1.2,12.81c-0.07,3.8-0.92,10.7-2.04,11.33 c-1.13,0.63-3.38-4.22-3.38-4.22s-0.98,5.52-2.11,9.22c-1.34,4.36-2.61,6.4-3.38,9.01c-0.92,3.1-1.83,5.35-2.46,4.36 c-0.55-0.85-1.13-2.18-1.69-3.17c-0.43-0.75-1.41-2.75-1.41-2.75s-0.99,5.98-5.77,10s-7.88,7.25-10.14,7.53 c-1.33,0.17,0.21-5.84,0.21-5.84s-7.46,5.86-11.05,8.52c-1.62,1.2-3.1,5.14-4.22,4.86c-1.13-0.28-4.01-4.65-5.84-5.98 s-5.28-2.89-5.77-3.17c-0.49-0.28-2.82-1.76-2.82-1.76s0.58,3.27-0.07,3.59c-1.41,0.7-6.83-3.17-8.38-5.56 c-1.55-2.39-4.29-7.32-4.29-7.32s-0.35,4.72-1.48,3.94c-1.2-0.82-7.04-5.14-9.08-8.38c-1.44-2.29-3.94-8.73-3.94-8.73 s-2.18,2.25-2.82,2.53s-2.25,0.92-1.97-1.55c0.28-2.46-1.65-8.04-1.97-11.4c-0.42-4.36,0.42-8.87,0.42-8.87s-3.59,4.79-5.28,4.72 s-0.7-9.29-0.28-12.11c0.42-2.82,1.83-7.74,2.39-9.5c0.56-1.76,2.67-4.36,2.67-4.36s-5.21,1.76-5.98,1.06s0.42-6.97,1.13-10.77 c0.36-1.95,1.9-5,3.87-7.25s5-1.83,5.28-2.82c0.28-0.99-1.12-1.77-2.11-3.38c-1.48-2.39-2.32-7.32-1.55-8.17 c0.48-0.52,3.17,1.55,6.41,1.9s6.12,0.14,6.12,0.14s-1.87-2.2-2.67-4.01c-1.13-2.53-1.2-5.56-0.49-6.34s3.17,1.62,6.48,2.46 c3.31,0.84,8.24,0.92,8.24,0.92s-2.11-2.25-2.67-4.86c-0.56-2.6-0.42-4.22,0.49-4.5c0.92-0.28,3.6,2.23,5.49,2.82 c2.04,0.63,8.94,0.21,12.04,1.13S62.59,13.59,62.59,13.59z" fill="#865C50"/>
  <path d="M84.83,35.56c0,0,12.11-11.54,19.15-2.96c8.35,10.19-13.8,21.4-13.8,21.4L84.83,35.56z" fill="#FEC000"/>
  <path d="M42.6,38.51c0,0-11.29-14.8-19.59-6.78s8.89,20.29,8.89,20.29L42.6,38.51z" fill="#FEC000"/>
  <path d="M95.25,45.41c0,0,8.87-6.19,5.21-10.14c-3.91-4.21-11.12,3.1-11.12,3.1L95.25,45.41z" fill="#FF8E06"/>
  <path d="M37.44,38.87c0,0-7.35-7.28-11.15-2.78c-3.42,4.05,6.34,11.83,6.34,11.83L37.44,38.87z" fill="#FF8E06"/>
  <path d="M64.7,89.47c0,0,7.18-1.97,11.68-4.22c4.5-2.25,21.26-11.68,22.52-23.23 c1.27-11.54,0-14.64-5.35-21.68s-14.73-8.66-19.57-7.6c-5.77,1.27-6.76,5.48-9.29,5.63c-2.39,0.14-1.69-2.53-8.59-5.07 c-8.83-3.25-33,5.45-28.72,28.72c2.25,12.25,20.1,22.7,22.38,23.93C55.27,88.91,64.7,89.47,64.7,89.47z" fill="#FEC000"/>
  <ellipse cx="79.1" cy="49.5" fill="#2E2F2F" rx="4.23" ry="4.15" transform="matrix(0.3698 -0.9291 0.9291 0.3698 3.8589 104.6836)"/>
  <ellipse cx="48.78" cy="48.96" fill="#2E2F2F" rx="4.27" ry="4.35" transform="matrix(0.9263 -0.3767 0.3767 0.9263 -14.8496 21.9828)"/>
  <path d="M64.51,57c-8.54-0.26-16.05,9.39-16.05,25.43c0,15.58,8.26,19.24,14.92,19.24 c8.45,0,16.42-5.54,15.49-20.65C78,67.04,73.61,57.28,64.51,57z" fill="#FFD899"/>
  <path d="M54.56,65.82c-0.84,0.84,0.75,5.44,2.16,7.79s5.44,6.19,7.7,6.1c2.25-0.09,6.48-4.79,7.79-8.26 c1.31-3.47,1.69-5.63,1.13-6.48s-7.23,0.19-9.76,0.19S55.41,64.98,54.56,65.82z" fill="#2E2F2F"/>
  <path d="M64.23,76.48c0,0-3.63,3.95-5.21,4.55c-2.21,0.84-5.63,0.12-5.73,1.48 c-0.09,1.41,2.11,2.89,5.63,2.42c3.89-0.52,5.35-2.91,5.35-2.91s2.21,3.14,6.48,3.33c4.27,0.19,5.26-2.53,4.08-2.91 c-1.6-0.51-2.6-0.41-5.02-1.17C67.89,80.65,64.23,76.48,64.23,76.48z" fill="#2E2F2F"/>
</svg>

<svg viewBox="0 0 128 128" xmlns="http://www.w3.org/2000/svg">
  <defs/>
  <path d="M62.59,13.59 C62.59,13.59 64.42,9.37 68.57,6.69 C70.59,5.39 74.12,3.38 74.76,4.51 C75.04,5 74.13,6.27 73.21,8.24 C72.84,9.05 72.01,11.69 72.01,11.69 C72.01,11.69 75.67,6.9 82.08,5.64 C87.12,4.64 92.57,5.29 93.2,6.41 C93.88,7.62 90.31,10.28 89.19,12.6 C88.07,14.92 87.22,17.88 87.22,17.88 C87.22,17.88 93.97,14.69 95.67,14.01 C97.78,13.17 102.36,11.41 102.99,12.18 C103.62,12.95 100.97,17.42 100.39,18.23 C99.69,19.22 98.63,21.05 98.63,21.05 C98.63,21.05 101.87,19.57 103.13,18.8 C104.4,18.03 107.21,15.84 107.85,16.27 C108.48,16.69 108.48,20.97 108.06,22.82 C107.5,25.28 104.89,27.96 104.89,27.96 C104.89,27.96 108.62,28.8 110.66,31.41 C112.7,34.02 113.89,36.05 114.74,38.66 C116.01,42.53 116.57,47.81 116.29,48.8 C116.01,49.79 114.46,48.45 111.57,48.24 C109.86,48.11 109.46,48.1 109.46,48.1 C109.46,48.1 111.09,50.04 111.85,51.83 C112.84,54.15 113.92,57.81 114.52,59.36 C115.15,60.98 115.65,62.25 116.56,64.08 C116.83,64.62 114.66,65.14 112.48,63.09 C111.75,62.41 110.86,61.75 110.86,61.75 C110.86,61.75 112.15,69.42 112.06,74.56 C111.99,78.36 111.14,85.26 110.02,85.89 C108.89,86.52 106.64,81.67 106.64,81.67 C106.64,81.67 105.66,87.19 104.53,90.89 C103.19,95.25 101.92,97.29 101.15,99.9 C100.23,103 99.32,105.25 98.69,104.26 C98.14,103.41 97.56,102.08 97,101.09 C96.57,100.34 95.59,98.34 95.59,98.34 C95.59,98.34 94.6,104.32 89.82,108.34 C85.04,112.36 81.94,115.59 79.68,115.87 C78.35,116.04 79.89,110.03 79.89,110.03 C79.89,110.03 72.43,115.89 68.84,118.55 C67.22,119.75 65.74,123.69 64.62,123.41 C63.49,123.13 60.61,118.76 58.78,117.43 C56.95,116.1 53.5,114.54 53.01,114.26 C52.52,113.98 50.19,112.5 50.19,112.5 C50.19,112.5 50.77,115.77 50.12,116.09 C48.71,116.79 43.29,112.92 41.74,110.53 C40.19,108.14 37.45,103.21 37.45,103.21 C37.45,103.21 37.1,107.93 35.97,107.15 C34.77,106.33 28.93,102.01 26.89,98.77 C25.45,96.48 22.95,90.04 22.95,90.04 C22.95,90.04 20.77,92.29 20.13,92.57 C19.49,92.85 17.88,93.49 18.16,91.02 C18.44,88.56 16.51,82.98 16.19,79.62 C15.77,75.26 16.61,70.75 16.61,70.75 C16.61,70.75 13.02,75.54 11.33,75.47 C9.64,75.4 10.63,66.18 11.05,63.36 C11.47,60.54 12.88,55.62 13.44,53.86 C14,52.1 16.11,49.5 16.11,49.5 C16.11,49.5 10.9,51.26 10.13,50.56 C9.36,49.86 10.55,43.59 11.26,39.79 C11.62,37.84 13.16,34.79 15.13,32.54 C17.1,30.29 20.13,30.71 20.41,29.72 C20.69,28.73 19.29,27.95 18.3,26.34 C16.82,23.95 15.98,19.02 16.75,18.17 C17.23,17.65 19.92,19.72 23.16,20.07 C26.4,20.42 29.28,20.21 29.28,20.21 C29.28,20.21 27.41,18.01 26.61,16.2 C25.48,13.67 25.41,10.64 26.12,9.86 C26.83,9.08 29.29,11.48 32.6,12.32 C35.91,13.16 40.84,13.24 40.84,13.24 C40.84,13.24 38.73,10.99 38.17,8.38 C37.61,5.78 37.75,4.16 38.66,3.88 C39.58,3.6 42.26,6.11 44.15,6.7 C46.19,7.33 53.09,6.91 56.19,7.83 C59.29,8.75 62.59,13.59 62.59,13.59 Z" fill="#865C50"/>
  <path d="M84.83,35.56 C84.83,35.56 96.94,24.02 103.98,32.6 C112.33,42.79 90.18,54 90.18,54 L84.83,35.56 Z" fill="#FEC000"/>
  <path d="M42.6,38.51 C42.6,38.51 31.31,23.71 23.01,31.73 C14.71,39.75 31.9,52.02 31.9,52.02 L42.6,38.51 Z" fill="#FEC000"/>
  <path d="M95.25,45.41 C95.25,45.41 104.12,39.22 100.46,35.27 C96.55,31.06 89.34,38.37 89.34,38.37 L95.25,45.41 Z" fill="#FF8E06"/>
  <path d="M37.44,38.87 C37.44,38.87 30.09,31.59 26.29,36.09 C22.87,40.14 32.63,47.92 32.63,47.92 L37.44,38.87 Z" fill="#FF8E06"/>
  <path d="M64.7,89.47 C64.7,89.47 71.88,87.5 76.38,85.25 C80.88,83 97.64,73.57 98.9,62.02 C100.17,50.48 98.9,47.38 93.55,40.34 C88.2,33.3 78.82,31.68 73.98,32.74 C68.21,34.01 67.22,38.22 64.69,38.37 C62.3,38.51 63,35.84 56.1,33.3 C47.27,30.05 23.1,38.75 27.38,62.02 C29.63,74.27 47.48,84.72 49.76,85.95 C55.27,88.91 64.7,89.47 64.7,89.47 Z" fill="#FEC000"/>
  <path d="M80.665,45.567 C82.794,46.414 83.82,48.861 82.956,51.032 C82.092,53.202 79.666,54.275 77.536,53.427 C75.407,52.579 74.381,50.133 75.245,47.962 C76.109,45.792 78.535,44.719 80.665,45.567 Z" fill="#2E2F2F"/>
  <path d="M52.734,47.351 C53.639,49.576 52.602,52.1 50.417,52.988 C48.233,53.877 45.728,52.793 44.823,50.568 C43.918,48.342 44.955,45.818 47.14,44.93 C49.324,44.041 51.829,45.125 52.734,47.351 Z" fill="#2E2F2F"/>
  <path d="M64.51,57 C55.97,56.74 48.46,66.39 48.46,82.43 C48.46,98.01 56.72,101.67 63.38,101.67 C71.83,101.67 79.8,96.13 78.87,81.02 C78,67.04 73.61,57.28 64.51,57 Z" fill="#FFD899"/>
  <path d="M54.56,65.82 C53.72,66.66 55.31,71.26 56.72,73.61 C58.13,75.96 62.16,79.8 64.42,79.71 C66.67,79.62 70.9,74.92 72.21,71.45 C73.52,67.98 73.9,65.82 73.34,64.97 C72.78,64.12 66.11,65.16 63.58,65.16 C61.05,65.16 55.41,64.98 54.56,65.82 Z" fill="#2E2F2F"/>
  <path d="M64.23,76.48 C64.23,76.48 60.6,80.43 59.02,81.03 C56.81,81.87 53.39,81.15 53.29,82.51 C53.2,83.92 55.4,85.4 58.92,84.93 C62.81,84.41 64.27,82.02 64.27,82.02 C64.27,82.02 66.48,85.16 70.75,85.35 C75.02,85.54 76.01,82.82 74.83,82.44 C73.23,81.93 72.23,82.03 69.81,81.27 C67.89,80.65 64.23,76.48 64.23,76.48 Z" fill="#2E2F2F"/>
</svg>
